X: 35469
T: Roxburgh Castle
R: hornpipe
M: 4/4
K: Amajor
|:ec|A3c cBAc|dcdf ecA2|d2fd c2ec|B2B2 afec|
A2Ac ecAc|dcdf ecA2|d2(3cdf afec|B2A2 A2:|
|:(3efg|aece Aecf|aece Aece|d2fd c2ec|B2B2 afec|
A2Ac ecAc|dc (3def ecAc|d2(3cdf afec|B2A2 A2:|

